assets/img/braze_icons/diamond-02.svg

<svg fill="none" height="24" viewBox="0 0 24 24" width="24" xmlns="http://www.w3.org/2000/svg"><g fill="#801ed7"><path clip-rule="evenodd" d="m3.99999 22c0-.5523.44771-1 1-1h14.00001c.5523 0 1 .4477 1 1s-.4477 1-1 1h-14.00001c-.55229 0-1-.4477-1-1z" fill-rule="evenodd"/><path d="m12.6127 1h-1.2254l-1.99996 6h5.22536z"/><path d="m14.7208 1 2 6h4.68c.4239 0 .6555-.49443.3841-.82009l-3.8668-4.64019c-.285-.34199-.7072-.53972-1.1523-.53972z"/><path d="m21.682 9.83634c.292-.32119.0641-.83634-.37-.83634h-4.6011l-3.2303 9.2871c-.0715.2056.1904.3613.3369.2002z"/><path d="m10.1826 18.4875c.1464.1611.4084.0054.3369-.2002l-3.23038-9.2873h-4.60126c-.43407 0-.66195.51515-.36997.83634z"/><path d="m2.21499 6.17991c-.27139.32566-.03981.82009.38411.82009h4.68005l2-6h-2.04501c-.44517 0-.86734.19773-1.15233.53972z"/><path d="m9.40665 9h5.18665l-2.5933 7.4559z"/></g></svg>

<svg width="24" height="24" viewBox="0 0 24 24" fill="none" xmlns="http://www.w3.org/2000/svg">
<path fill-rule="evenodd" clip-rule="evenodd" d="M3.99999 22C3.99999 21.4477 4.4477 21 4.99999 21H19C19.5523 21 20 21.4477 20 22C20 22.5523 19.5523 23 19 23H4.99999C4.4477 23 3.99999 22.5523 3.99999 22Z" fill="#801ED7"/>
<path d="M12.6127 1H11.3873L9.38734 7H14.6127L12.6127 1Z" fill="#801ED7"/>
<path d="M14.7208 1L16.7208 7H21.4008C21.8247 7 22.0563 6.50557 21.7849 6.17991L17.9181 1.53972C17.6331 1.19773 17.2109 1 16.7658 1H14.7208Z" fill="#801ED7"/>
<path d="M21.682 9.83634C21.974 9.51515 21.7461 9 21.312 9H16.7109L13.4806 18.2871C13.4091 18.4927 13.671 18.6484 13.8175 18.4873L21.682 9.83634Z" fill="#801ED7"/>
<path d="M10.1826 18.4875C10.329 18.6486 10.591 18.4929 10.5195 18.2873L7.28912 9H2.68786C2.25379 9 2.02591 9.51515 2.31789 9.83634L10.1826 18.4875Z" fill="#801ED7"/>
<path d="M2.21499 6.17991C1.9436 6.50557 2.17518 7 2.5991 7H7.27915L9.27915 1H7.23414C6.78897 1 6.3668 1.19773 6.08181 1.53972L2.21499 6.17991Z" fill="#801ED7"/>
<path d="M9.40665 9H14.5933L12 16.4559L9.40665 9Z" fill="#801ED7"/>
</svg>
